X:755
M:C|
L:1/8
K:E Minor
E|B,E E/E/E E2 D>B|ADFD FAAd|B2 AB Beef|dD D/D/D F>EE:|
fde^c dBBc|dD D/D/D F<EE||

